!!!OTL: Graf und Nonne (Die Nonne)
!!!OTL-incipit:Ich stand auf hohen Felsen
!!!ARE: Europa, Mitteleuropa, Deutschland (BRD), Franken
!!!YOR: 8, S. 295
!!    1855 gedruckt in Leipzig
!!!SCT: Q0155d.
!!!TXL: @@DE
!!!YEM: Copyright 1995, estate of Helmut Schaffrath.
**kern	**text
*ICvox	*
*M2/4	*
*k[f#]	*
*G:	*
{8d	Ich
=1	=1
8gL	stand
8gJ	auf
8ddL	ho-
8bJ	-hen
=2	=2
(8.bL	Fel-
16aJ)	.
8a}	-sen
{(16ccL	und
16bJ)	.
=3	=3
8bL	sah
(16cc	ins
16aJ)	.
8gL	tie-
8f#J	-fe
=4	=4
4g	Tal.
8r}	.
{8d	Ich
=5	=5
8gL	stand
8gJ	auf
8ddL	ho-
8bJ	-hen
=6	=6
(8.bL	Fel-
16aJ	.
8a}	-sen
{(16ccL	und
16bJ)	.
=7	=7
8bL	sah
(16cc	ins
16aJ)	.
8gL	tie-
8f#J	-fe
=8	=8
4g	Tal.
8r}	.
{8g	Sah
=9	=9
8gL	ich
8bJ	ein
8ddL	Schiff-
8ddJ	-lein
=10	=10
(8.ddL	schwim-
16ggJ)	.
4gg}	-men,
=11	=11
{4cc	ju
(8ccL	ja
8eeJ)	.
=12	=12
4dd	schwim-
8ee}	-men,
{(16ddL	drei
16ccJ)	.
=13	=13
8bL	Gra-
8bJ	-fen
8ccL	drin-
8aJ	-ne
=14	=14
(4a	warn.
8g)}	.
==	==
!!!AGN: Ballade, Standesunterschied, vergebliche Werbung, Liebe, Klage
!!!ONB: ESAC (Essen Associative Code) Database: BALLADE
!!!AMT: simple duple
!!!AIN: vox
!!!EED: Helmut Schaffrath
!!!EEV: 1.0
!!!source: Deutsche Volkslieder mit ihren Melodien. Herausgegeben vom Deutschen Volksliedarchiv. Achter Teil. Freiburg/Breisgau 1988.
!!!page: 295
!!!ENC: Anna Maria Matuszewska
!!!EEV: 2025/03/10
*-	*-
